X:515
T:Vals # 515
T: efter fadern
M:3/4
L:1/8
K: G
Q: 160
D2G2A2| B3c B2| B2c2B2| d3ed2| d2e2f2| g3ag2|g2a3g| f4(A2|
A2) d3c| B4 D2| D2G2A2| B3c B2| B2c2B2| d3ed2| d2e2f2| g3ag2|g2a3g|
f4(A2|A2) B3A| G4z2:: G2g2g2| f2Ac Ac| A2e2e2| d2 GB GB| D2B2B2|
d2FA FA| A2e2e2| d2GB GB| G2g2g2| f2 Ac Ac| A2e2e2| d2 GB GB|
D2B2B2| c2cA FA| A3G BA| G4z2:|

